www/assets/images/test_icons/flags/BI.svg

<svg fill="none" height="15" viewBox="0 0 21 15" width="21" xmlns="http://www.w3.org/2000/svg" xmlns:xlink="http://www.w3.org/1999/xlink"><mask id="a" height="15" maskUnits="userSpaceOnUse" width="21" x="0" y="0"><path d="m19 0h-17c-1.10457 0-2 .89543-2 2v11c0 1.1046.89543 2 2 2h17c1.1046 0 2-.8954 2-2v-11c0-1.10457-.8954-2-2-2z" fill="#fff"/></mask><g mask="url(#a)"><path d="m19 0h-17c-1.10457 0-2 .89543-2 2v11c0 1.1046.89543 2 2 2h17c1.1046 0 2-.8954 2-2v-11c0-1.10457-.8954-2-2-2z" fill="#d0091e"/><g clip-rule="evenodd" fill-rule="evenodd"><path d="m0 0 10 8-10 7zm21 0-10 8 10 7z" fill="#08b731"/><path d="m7.158 6.456-7.158-4.956v-1.5h1.5l6.847 4.74c.593-.464 1.34-.74 2.153-.74.812 0 1.56.276 2.153.74l6.847-4.74h1.5v1.5l-7.158 4.956c.103.33.158.68.158 1.044s-.055.714-.158 1.044l7.158 4.956v1.5h-1.5l-6.847-4.74c-.594.464-1.34.74-2.153.74-.812 0-1.56-.276-2.153-.74l-6.847 4.74h-1.5v-1.5l7.158-4.956c-.103-.33-.158-.68-.158-1.044s.055-.714.158-1.044z" fill="#fff"/><path d="m10 6h1v1h-1zm1 2h1v1h-1zm-2 0h1v1h-1z" fill="#d0091e"/></g><path d="m19 .5h-17c-.82843 0-1.5.67157-1.5 1.5v11c0 .8284.67157 1.5 1.5 1.5h17c.8284 0 1.5-.6716 1.5-1.5v-11c0-.82843-.6716-1.5-1.5-1.5z" stroke="#000" stroke-opacity=".1"/></g></svg>

<svg width="21" height="15" viewBox="0 0 21 15" fill="none" xmlns="http://www.w3.org/2000/svg">
<mask id="mask0_3_194" style="mask-type:alpha" maskUnits="userSpaceOnUse" x="0" y="0" width="21" height="15">
<path d="M19 0H2C0.89543 0 0 0.89543 0 2V13C0 14.1046 0.89543 15 2 15H19C20.1046 15 21 14.1046 21 13V2C21 0.89543 20.1046 0 19 0Z" fill="white"/>
</mask>
<g mask="url(#mask0_3_194)">
<path d="M19 0H2C0.89543 0 0 0.89543 0 2V13C0 14.1046 0.89543 15 2 15H19C20.1046 15 21 14.1046 21 13V2C21 0.89543 20.1046 0 19 0Z" fill="#D0091E"/>
<path fill-rule="evenodd" clip-rule="evenodd" d="M0 0L10 8L0 15V0ZM21 0L11 8L21 15V0Z" fill="#08B731"/>
<path fill-rule="evenodd" clip-rule="evenodd" d="M7.158 6.456L0 1.5V0H1.5L8.347 4.74C8.94 4.276 9.687 4 10.5 4C11.312 4 12.06 4.276 12.653 4.74L19.5 0H21V1.5L13.842 6.456C13.945 6.786 14 7.136 14 7.5C14 7.864 13.945 8.214 13.842 8.544L21 13.5V15H19.5L12.653 10.26C12.059 10.724 11.313 11 10.5 11C9.688 11 8.94 10.724 8.347 10.26L1.5 15H0V13.5L7.158 8.544C7.055 8.214 7 7.864 7 7.5C7 7.136 7.055 6.786 7.158 6.456Z" fill="white"/>
<path fill-rule="evenodd" clip-rule="evenodd" d="M10 6H11V7H10V6ZM11 8H12V9H11V8ZM9 8H10V9H9V8Z" fill="#D0091E"/>
<path d="M19 0.5H2C1.17157 0.5 0.5 1.17157 0.5 2V13C0.5 13.8284 1.17157 14.5 2 14.5H19C19.8284 14.5 20.5 13.8284 20.5 13V2C20.5 1.17157 19.8284 0.5 19 0.5Z" stroke="black" stroke-opacity="0.1"/>
</g>
</svg>
